svgs/get_current_wallpaper.svg

<svg width="192" height="192" viewBox="0 0 192 192" fill="none" xmlns="http://www.w3.org/2000/svg">
<path d="M33.4344 135.534C46.5505 156.248 69.6692 170 96 170C129.839 170 158.373 147.287 167.188 116.274M33.4344 135.534C26.1925 124.097 22 110.538 22 96C22 55.1309 55.1309 22 96 22C136.869 22 170 55.1309 170 96C170 103.03 169.02 109.831 167.188 116.274M33.4344 135.534L63.5616 90.9315L88.3973 127.932L130.973 65.589L167.188 116.274" stroke="black" stroke-width="12" stroke-linejoin="round"/>
</svg>

<svg xmlns="http://www.w3.org/2000/svg" width="192" height="192" fill="none" viewBox="0 0 192 192"><path stroke="#000" stroke-linejoin="round" stroke-width="12" d="M33.434 135.534C46.551 156.248 69.67 170 96 170c33.839 0 62.373-22.713 71.188-53.726m-133.754 19.26C26.193 124.097 22 110.538 22 96c0-40.87 33.13-74 74-74s74 33.13 74 74c0 7.03-.98 13.831-2.812 20.274m-133.754 19.26 30.128-44.602 24.835 37 42.576-62.343 36.215 50.685"/></svg>
